packages/ui/src/components/Icon/Icon.assets/chevron-left.svg

<svg width="24" height="24" viewBox="0 0 24 24" fill="none" xmlns="http://www.w3.org/2000/svg">
<path fill-rule="evenodd" clip-rule="evenodd" d="M16.6513 3.35622C17.1162 3.83119 17.1162 4.60126 16.6513 5.07622L9.87407 12L16.6513 18.9238C17.1162 19.3987 17.1162 20.1688 16.6513 20.6438C16.1864 21.1187 15.4326 21.1187 14.9677 20.6438L7.34869 12.8601C7.12543 12.632 7 12.3226 7 12.0001C7 11.6775 7.12542 11.3681 7.34868 11.14L14.9677 3.35622C15.4326 2.88126 16.1864 2.88126 16.6513 3.35622Z" fill="white"/>
</svg>

<svg width="24" height="24" fill="none" xmlns="http://www.w3.org/2000/svg"><path fill-rule="evenodd" clip-rule="evenodd" d="M16.651 3.356a1.235 1.235 0 010 1.72L9.874 12l6.777 6.924a1.235 1.235 0 010 1.72 1.173 1.173 0 01-1.683 0l-7.62-7.784A1.23 1.23 0 017 12c0-.322.125-.632.349-.86l7.619-7.784a1.173 1.173 0 011.683 0z" fill="#fff"/></svg>
